!! 00000] TT[00
!! NN
!!!OTL: Zou xikou
!!!ARE: Asia, China, Shanxi, Hequ
!! Ethnic Group: Han
!! I, 319
!!!SCT: C0084
!!!YEM: Copyright 1995, estate of Helmut Schaffrath.
**kern
*ICvox
*Ivox
*M2/4
*k[f#c#g#]
*A:
{8.b
16cc#
8a
8b
=1
8cc#
8ff#
8ee
8cc#
=2
[2b
=3
2b]}
=4
{8cc#
8ff#
8ee
8cc#
=5
8.b
16cc#
8a
8f#
=6
[2e
=7
2e]}
=8
{8f#
8g#
[4b
=9
4b]
8ee
8cc#
=10
8b
8ee
8a
8f#
=11
8e
8c#
8e
8f#}
=12
{8a
8a
8a
8b
=13
8f#
8a
8e
8c#
=14
2B}
==
!!!AGN: Xiaodiao, MengjiangnÅ diao. NannÅ liqing
!! Zwischen- und Nachspiele weggelassen.
!!!ONB: ESAC (Essen Associative Code) Database: CHINA
!!!AMT: simple duple
!!!AIN: vox
!!!EED: Helmut Schaffrath
!!!EEV: 1.0
*-
!!!ONB: Tied note syntax fixed by Craig Sapp, 2004/05/03/
